X: 180
T: Chule gede qianqian xiale gedemi
L: 1/16
M: 4/8
K: G
d2 d2 d2 d g [I:setbarnb 1]| 
d e d B A G A2 | 
A2 d2 d2 A d | 
G8 | 
[M:3/8]A2 d2 A d | 
A G F E D2 | 
G2 A B F E | 
E2D6 |]

@@@ Tune index: 9054
